X: 0
T: The Virgin's Lullabye
L: 1/4
M: 3/4
Q: 1/4=60
K: Bb
[V: P1]  F3/4 E/4 | D3/4 D/4 D3/ F/ | (E/4E/4) D/ C3/4 C/4 E/ D/ | C3/ G/ F/ E/ | Dz/z/4 D/4 F3/4 E/4 | D3/4 D/4 D3/ F/ | (E/4E/4) D/ C3/4 C/4 E/ D/ | C3/ G/ F/ A,/ | B,z A,/ B,/ | C3/4 C/4 C3/ E/ | D/4 D/4 D/4 D/4 D3/4 D/4 D/ F/ | =E3/ D/ C/ B,/ | A,z F/ _E/ | D3/4 D/4 D3/ F/ | (E/4E/4) D/ C3/4 C/4 E/ D/ | C3/ G/ F/ A,/ | B,2|]
[V: P2]  d/ c/ | B/ F/ D/ F/ B/ d/ | c/ B/ A c/ B/ | A/ G/ F/ e/ d/ c/ | B/ F/ D/ F/ d/ c/ | B/ F/ D/ F/ B/ d/ | c/ B/ A c/ B/ | A/ G/ F/ e/ d/ c/ | B/ F/ Bz |z/ F/ A/ c/ B/ A/ | B/ F/ D/ F/ B/ d/ | c/ G/ B/ A/ G/ F/ | E f/ e/ d/ c/ | B/ F/ D/ F/ B/ d/ | c/ B/ A c/ B/ | A/ G/ F/ e/ d/ c/ | B2|]

